src/assets/images/components/page/PageHeader/menu-dropdown-usecase-icon-web3.svg

<svg fill="none" height="28" viewBox="0 0 28 28" width="28" xmlns="http://www.w3.org/2000/svg"><path d="m6.84421 24.8972h14.94889c2.5294 0 3.8442-1.3053 3.8442-3.8058v-14.26219c0-2.50265-1.3148-3.80577-3.8442-3.80577h-14.94889c-2.52937 0-3.84421 1.29351-3.84421 3.80577v14.26219c0 2.5102 1.31484 3.8058 3.84421 3.8058z" fill="#000"/><path d="m10.248 19.0188c-1.0373 0-1.88081-.8435-1.88081-1.8808 0-1.0299.84351-1.8692 1.88081-1.8692 1.0299 0 1.8617.8393 1.8617 1.8692 0 1.0373-.8318 1.8808-1.8617 1.8808zm8.1523 0c-1.0394 0-1.8712-.8435-1.8712-1.8808 0-1.0299.8318-1.8692 1.8712-1.8692 1.0181 0 1.8713.8393 1.8713 1.8692 0 1.0373-.8532 1.8808-1.8713 1.8808zm-4.0809-6.3926c-1.0374 0-1.8809-.8414-1.8809-1.8808 0-1.02778.8435-1.86918 1.8809-1.86918 1.0277 0 1.8712.8414 1.8712 1.86918 0 1.0394-.8435 1.8808-1.8712 1.8808z" fill="#fff"/></svg>

<svg width="28" height="28" viewBox="0 0 28 28" fill="none" xmlns="http://www.w3.org/2000/svg">
<path d="M6.84421 24.8972H21.7931C24.3225 24.8972 25.6373 23.5919 25.6373 21.0914V6.82921C25.6373 4.32656 24.3225 3.02344 21.7931 3.02344H6.84421C4.31484 3.02344 3 4.31695 3 6.82921V21.0914C3 23.6016 4.31484 24.8972 6.84421 24.8972Z" fill="black"/>
<path d="M10.248 19.0188C9.2107 19.0188 8.36719 18.1753 8.36719 17.138C8.36719 16.1081 9.2107 15.2688 10.248 15.2688C11.2779 15.2688 12.1097 16.1081 12.1097 17.138C12.1097 18.1753 11.2779 19.0188 10.248 19.0188ZM18.4003 19.0188C17.3609 19.0188 16.5291 18.1753 16.5291 17.138C16.5291 16.1081 17.3609 15.2688 18.4003 15.2688C19.4184 15.2688 20.2716 16.1081 20.2716 17.138C20.2716 18.1753 19.4184 19.0188 18.4003 19.0188ZM14.3194 12.6262C13.282 12.6262 12.4385 11.7848 12.4385 10.7454C12.4385 9.71762 13.282 8.87622 14.3194 8.87622C15.3471 8.87622 16.1906 9.71762 16.1906 10.7454C16.1906 11.7848 15.3471 12.6262 14.3194 12.6262Z" fill="white"/>
</svg>
